X: 63
T: Pollonesse #63
M: 3/4
L: 1/16
K: F
Q:120
a2f2 f2f2 f2ga|b2g2 g2g2 g2fg|a2gf b2ag a2gf|g4 e2d2 e2c2|
a2f2 f2f2 f2ga|b2g2 g2g2 g2fg|a2gf b2ag a2gf|egfe f8:|
F2c2 F2c2 dcBA|G2B2 G2B2 c2BA|[FA]2[FA]2 [GB]2[GB]2 [FA]2[FA]2|[CG]2[CG]2 [CG]8|
F2c2 F2c2 dcBA|G2B2 G2B2 cBAG|[FA]2[FA]2 [GB]2[GB]2 [FA]2[FA]2|egfe f8:|

